X: 1
T: J B Milne
T: Rodney Miller's dance version
C: by Angus Fitchet
R: reel
S: Fiddle Hell Online 2021-11-3
Z: 2022 John Chambers <jc:trillian.mit.edu>
M: C|
L: 1/8
K: A
cd |\
"A"efed c2cA | EFAB c2cB | cedc B2A2 | "Bm"d6 Bc |\
"E"dedc B3G | E2G2 [B3G3]B | BdcB A2B2 | "A"c3d cBcd ||
"A"efed c2cA | EGAB c2cB  | "A7"cedc B2A2 | "D"[f4A4] f3g |\
"D#dim"abag fagf | "A"fecA "F#m"EAgf | "B7"e2^de "E"f2g2 | "A"a4 a2cd ||
||\
"A"ee^de fcec | Acec f2ec | ee^de fe=dc | "Bm"d3e d2Bc |\
"E7"d2cd edcd | EGBG edcd | ddcd edcB | "A"c3d cBcd ||
"A"ee^de fcec | Acec f2eg | "A7"a2ga baga | "D"fdAF D2fg |\
abag fagf | "A"fecA "F#m"EAgf | "B7"e2^de "E7"f2g2 | "A"a4 a2 |]
